X: 16140
T: Green Grow The Rushes
R: barndance
M: 4/4
K: Gmajor
M:2/4
|:G>A BA|BG GB|Ae ed|eA AB|
c>B ce|d/c/B/A/ GB|A>c BA|1 GE EF:|2 GE E2||
|:g>f ga|gd dg|ea ag|ae ef|
g>f ge|d/c/B/A/ GB|A>c BA|1 GE E2:|2 GE EF||

